brandFactory_export/3.Masa/Copiar_3Masa.svg

<?xml version="1.0" encoding="UTF-8"?>
<svg width="24px" height="24px" viewBox="0 0 24 24" version="1.1" xmlns="http://www.w3.org/2000/svg" xmlns:xlink="http://www.w3.org/1999/xlink">
    <title>3.Masa/Copiar_3Masa</title>
    <g id="Symbols" stroke="none" stroke-width="1" fill="none" fill-rule="evenodd">
        <g id="3.Masa/Copiar_3Masa" fill="#5CB615" fill-rule="nonzero">
            <path d="M1.52941176,15.0857143 L1.52941176,1.80840336 C1.52941176,1.65378151 1.65714286,1.52605042 1.81176471,1.52605042 L15.0857143,1.52605042 C15.2403361,1.52605042 15.3680672,1.65378151 15.3680672,1.80840336 L15.3680672,15.0857143 C15.3680672,15.2403361 15.2403361,15.3680672 15.0857143,15.3680672 L1.81176471,15.3680672 C1.65378151,15.3680672 1.52941176,15.2436975 1.52941176,15.0857143 Z M21.8722689,6.72268908 L16.9008403,6.72268908 L16.9008403,1.81176471 C16.9008403,0.813445378 16.087395,0 15.0890756,0 L1.81512605,0 C0.816806723,0 0.00336134454,0.813445378 0.00336134454,1.81176471 L0.00336134454,15.0890756 C0.00336134454,16.087395 0.816806723,16.9008403 1.81512605,16.9008403 L6.72268908,16.9008403 L6.72268908,21.8722689 C6.72268908,22.8369748 7.5092437,23.6235294 8.47394958,23.6235294 L21.8689076,23.6235294 C22.8336134,23.6235294 23.6201788,22.8369748 23.6201788,21.8722689 L23.6201788,8.47394958 C23.6235294,7.5092437 22.8369748,6.72268908 21.8722689,6.72268908 Z" id="Copiar_3Masa"></path>
        </g>
    </g>
</svg>

<svg width="24" height="24" viewBox="0 0 24 24" xmlns="http://www.w3.org/2000/svg"><path d="M1.53 15.086V1.808c0-.154.127-.282.282-.282h13.274c.154 0 .282.128.282.282v13.278a.284.284 0 01-.282.282H1.812a.28.28 0 01-.283-.282zm20.342-8.363h-4.971V1.812C16.9.813 16.087 0 15.089 0H1.815C.817 0 .003.813.003 1.812v13.277c0 .998.814 1.812 1.812 1.812h4.908v4.971c0 .965.786 1.752 1.75 1.752H21.87c.965 0 1.751-.787 1.751-1.752V8.474a1.75 1.75 0 00-1.748-1.751z" fill="#5CB615" fill-rule="nonzero"/></svg>
